assets/ai/ai-hypothesis.svg

<svg xmlns="http://www.w3.org/2000/svg" width="100%" height="100%" viewBox="-43.52 -43.52 599.04 599.04"><path d="m 95.99673,64.000001 c -17.64763,0 -31.99791,14.326535 -31.99791,31.997908 V 416.00444 c 0,17.6464 14.32654,31.99792 31.99791,31.99792 H 207.05647 L 256.00274,512 304.94352,448.00236 h 111.05974 c 17.64639,0 31.99792,-14.32779 31.99792,-31.99792 V 95.997909 c 0,-17.647623 -14.32778,-31.997908 -31.99792,-31.997908 z m 32.00157,63.999469 h 48.12962 v 112.03205 c 0,0 16.04495,-31.98325 47.87142,-31.98325 32.00272,0 64.43527,15.95343 64.43527,65.69504 V 384.00288 H 240.30316 V 288.0586 c 0,-26.06019 -16.30233,-36.05971 -32.30369,-32.05468 -16.00136,3.99879 -31.87155,20.99507 -31.87155,56.04532 v 71.95364 H 127.9983 Z M 367.99999,320.0034 c 17.67638,0 32.00159,14.27716 32.00159,31.89355 0,17.61762 -14.32521,31.89536 -32.00159,31.89536 -17.67136,0 -31.99607,-14.27774 -31.99607,-31.89536 0,-17.61639 14.32471,-31.89355 31.99607,-31.89355 z"/></svg>

<svg xmlns="http://www.w3.org/2000/svg" width="100%" height="100%" viewBox="-43.52 -43.52 599.04 599.04"><path d="M95.997 64c-17.648 0-31.998 14.327-31.998 31.998v320.006c0 17.647 14.326 31.998 31.998 31.998h111.06L256.002 512l48.94-63.998h111.06c17.647 0 31.998-14.327 31.998-31.998V95.998C448.001 78.35 433.673 64 416.003 64zm32.001 64h48.13v112.032s16.045-31.984 47.871-31.984c32.003 0 64.436 15.954 64.436 65.695v110.26h-48.132v-95.944c0-26.06-16.302-36.06-32.304-32.055-16 3.999-31.871 20.995-31.871 56.045v71.954h-48.13zM368 320.002c17.676 0 32.002 14.278 32.002 31.894 0 17.618-14.326 31.895-32.002 31.895-17.671 0-31.996-14.277-31.996-31.895 0-17.616 14.325-31.894 31.996-31.894z"/></svg>
